X: 71
M: 6/8
L: 1/8
K: Gmix
|:\
gdc TB2G | dBG (A/B/c)A | gdc TB2G | cAF (A/B/c)A |\
gdc TB2G | (b/c'/d')b c'2a | gfe f2d | cAF (A/B/c)A :|
|:\
|:\
|:\


